X: 17734
T: Homecoming, The
R: jig
M: 6/8
K: Gmajor
|:E|DED DEF|~G3 GAB|cBA BAG|~E3 EGE|
DED DEF|~G3 GAB|cBA d2B|AGF G2:|
|:B|dBG GBd|ecA ABc|dcB A2G|FDD DGB|
dBG GBd|ecA ABc|dcB Adc|BGF G2:|

